static/assets/img/icons/theme/navigation/arrow-from-top.svg

<svg height="24" viewBox="0 0 24 24" width="24" xmlns="http://www.w3.org/2000/svg"><g fill="none" fill-rule="evenodd"><path d="m0 0h24v24h-24z" opacity="0"/><g fill="#000"><rect height="14" opacity=".3" rx="1" width="2" x="11" y="7"/><path d="m6.70710678 20.7071068c-.39052429.3905243-1.02368927.3905243-1.41421356 0s-.39052429-1.0236893 0-1.4142136l5.99999998-6c.378579-.3785789.9881654-.3918245 1.3828314-.0300473l6 5.5c.407119.3731924.4346219 1.0057597.0614295 1.4128787s-1.0057597.4346219-1.4128787.0614295l-5.2941997-4.8530163z" fill-rule="nonzero" transform="matrix(1 0 0 -1 0 33.999998)"/><rect height="2" opacity=".3" rx="1" width="18" x="3" y="3"/></g></g></svg>

<svg width="24px" height="24px" viewBox="0 0 24 24" version="1.1" xmlns="http://www.w3.org/2000/svg" xmlns:xlink="http://www.w3.org/1999/xlink">
    <title>Icon For Arrow-from-top</title>
    <g stroke="none" stroke-width="1" fill="none" fill-rule="evenodd">
        <polygon points="0 0 24 0 24 24 0 24" opacity="0"></polygon>
        <rect fill="#000000" opacity="0.3" x="11" y="7" width="2" height="14" rx="1"></rect>
        <path d="M6.70710678,20.7071068 C6.31658249,21.0976311 5.68341751,21.0976311 5.29289322,20.7071068 C4.90236893,20.3165825 4.90236893,19.6834175 5.29289322,19.2928932 L11.2928932,13.2928932 C11.6714722,12.9143143 12.2810586,12.9010687 12.6757246,13.2628459 L18.6757246,18.7628459 C19.0828436,19.1360383 19.1103465,19.7686056 18.7371541,20.1757246 C18.3639617,20.5828436 17.7313944,20.6103465 17.3242754,20.2371541 L12.0300757,15.3841378 L6.70710678,20.7071068 Z" fill="#000000" fill-rule="nonzero" transform="translate(12.000003, 16.999999) scale(1, -1) translate(-12.000003, -16.999999) "></path>
        <rect fill="#000000" opacity="0.3" x="3" y="3" width="18" height="2" rx="1"></rect>
    </g>
</svg>
